X: 10916
T: Drowsy Maggie
R: reel
M: 4/4
K: Edorian
|:"Em"E2BE dEBE|E2BE "D"AFDF|"Em"E2BE dEBE|BABc "D"dAFD|
"Em"E2BE dEBE|E2BE "D"AFDF|"Em"E2BE dEBE|BABc "D"dAFD:|
|:"D"d2fd "A"c2ec|"D"defg afge|"D"d2fd "A"c2ec|"D"BABc dAFA|
"D"d2fd "A"c2ec|"D"defg afge|"G"afge fdec|"A"BABc dAFD:|"Em"E8||

